X:190
%%pagewidth 8in
%%vocalfont Baskerville10Pro 13
T:Northern Nancy
M:6/8
L:1/8
K:Bb
%%score 1 2
V:1 clef-treble
V:2 clef-bass octave=-1
[V:1]D|G>AG [A,C^F]2[B,DG] & [B,D]2x4|[CEA]2[DB] [Fc]BA|(B>c)d D2[D^FB] & [DG]2x4|[C^FA]3[B,G]2D|
w:In an-*cient times when as plain deal-ing Was most* of all in fashion,* There
[V:2]z|G,6-|G,6-|G,2B, D3|D2D G2z|
[V:1]G>AG [C^F]2[DG] & B,2x4|[EGA]2[DGB] [CGc]B[EGA]|(B>c)d D2[D^FB] & [DG]2x4|[C^FA]3[B,G]2||"^f"[GBd]|
w:was* not then half so much steal-ing, Nor men* so giv'n to pas-sion: But
[V:2]G,3A,2B,|C2D E2C|D3-D2D,|G,2D G2||G|
[V:1]e>d[FBd] (c>B)[FA] & [Fc]2x G2x|[DB]2[Gc] [^Fd]2A|"^p"(B>c)d D2[D^FB] & G2x4|[C^FA]3[B,G]2"^f"[GBd]|
w:now* a days,* truth so de-cays, And false* knaves there are plen-ty, So
[V:2]A2B E2F|G2E D3|G,2B, D2D,|G,3-G,2G|
[V:1](f>e)[FBd] (c>B)[FA] & [Fc]2x G2x|[DB]2[Gc] [^Fd]2A|"^p"B>cd D2[D^FB] & G2x4|[C^FA]3[B,G]2||
w:pride* ex-ceeds* all o-ther deeds, And Mock-beg-gar Hall stands emp-ty.
[V:2]A2B E2F|G2E D3|G,2B, D2D,|G,3-G,2||

